X: 453
T: Ride a mill
C:anon.
O:Ireland
B:Francis O'Neill: "The Dance Music of Ireland" (1907) no. 453
R:Hop, Slip jig
Z:Transcribed by Frank Nordberg - http://www.musicaviva.com
F:http://www.musicaviva.com/abc/tunes/ireland/oneill-1001/oneill-1001-045
3.abc
M:9/8
L:1/8
K:G
dBG G2(A G2)B|dBG GBd g2e|dBG G2(A G2)E|F2G A2B c2e|dBG G2(A G2)B|
dBG GBd gfe|dBG GAG (Bc)d|e2A A2B c2(e||d)ef g2(g f)ed|g2B B2c d2e|def ga
g (fe)d|
e2A A2B c2e|def g2g fed|g2B B2c d2e|def gfe (af)d|e2A ABd gfe||BBB (g2B)
g2B|
BBB (g2B) b2B|BBB (g2B) g2B|AAA A2(B c2)A|BBB (g2B) g2B|BBB (g2B) b2B|BBB
 (b2g) a2f|gfg (e2f) (gf)e|]
W:
W:
W:  From Musica Viva - http://www.musicaviva.com
W:  the Internet center for free sheet music downloads.


